!!!OTL: 新宝島
**kern	**kern	**kern	**kern	**kern	**kern
*part6	*part5	*part4	*part3	*part2	*part1
*staff6	*staff5	*staff4	*staff3	*staff2	*staff1
*I"まこちゃん	*I"はせさん	*I"さわこさん	*I"きし	*I"みさとさん	*I"ファンキー
*I'まこちゃん	*I'はせさん	*I'さわこさん	*I'きし	*I'みさとさん	*I'ファンキー
*clefG2	*clefF4	*clefG2	*clefG2	*clefG2	*clefG2
*k[b-e-]	*k[b-e-]	*k[b-e-]	*k[b-e-]	*k[b-e-]	*k[b-e-]
*M4/4	*M4/4	*M4/4	*M4/4	*M4/4	*M4/4
=1	=1	=1	=1	=1	=1
1r	8GG	8G	1r	1r	1r
.	4r	8r	.	.	.
.	.	8d	.	.	.
.	8C	8r	.	.	.
.	8C	8c	.	.	.
.	4r	8r	.	.	.
.	.	8dL	.	.	.
.	8FF	8fJ	.	.	.
=2	=2	=2	=2	=2	=2
1r	8r	8r	8r	1r	1r
.	8FF	8d	8r	.	.
.	8r	8r	4r	.	.
.	8BB-	8c	.	.	.
.	8BB-	8r	2r	.	.
.	8r	8d	.	.	.
.	8BB-	8r	.	.	.
.	8r	8d	.	.	.
=3	=3	=3	=3	=3	=3
1r	8GG	8G	8d	1r	1r
.	4r	8r	4r	.	.
.	.	8d	.	.	.
.	8C	8r	8e-	.	.
.	8C	8c	8e-	.	.
.	4r	8r	4r	.	.
.	.	8dL	.	.	.
.	8FF	8gJ	8f	.	.
=4	=4	=4	=4	=4	=4
1r	8r	8r	8f	1r	1r
.	8FF	8d	4r	.	.
.	8r	8r	.	.	.
.	8BB-	8c	8f	.	.
.	8BB-	8r	8r	.	.
.	8r	8d	8f	.	.
.	8BB-	8r	8r	.	.
.	8r	8d	8f	.	.
=5	=5	=5	=5	=5	=5
1r	8GG	8G	8d	8g	1r
.	4r	8r	4r	4r	.
.	.	8d	.	.	.
.	8C	8r	8e-	8g	.
.	8C	8c	8e-	8g	.
.	4r	8r	4r	4r	.
.	.	8dL	.	.	.
.	8FF	8fJ	8f	8a	.
=6	=6	=6	=6	=6	=6
1r	8r	8r	8f	8a	1r
.	8FF	8d	4r	4r	.
.	8r	8r	.	.	.
.	8BB-	8c	8f	8a	.
.	8BB-	8r	8r	8r	.
.	8r	8d	8f	8a	.
.	8BB-	8r	8r	8r	.
.	8r	8d	8f	8a	.
=7	=7	=7	=7	=7	=7
1r	8GG	8G	8d	8g	1r
.	4r	8r	4r	4r	.
.	.	8d	.	.	.
.	8C	8r	8e-	8g	.
.	8C	8c	8e-	8g	.
.	4r	8r	4r	4r	.
.	.	8dL	.	.	.
.	8FF	8gJ	8f	8a	.
=8	=8	=8	=8	=8	=8
1r	8r	8r	8f	8a	2r
.	8FF	8d	4r	4r	.
.	8r	8r	.	.	.
.	8BB-	8c	8f	8a	.
.	8BB-	8r	8r	8r	8r
.	8r	8d	8f	8a	8dL
.	8BB-	8r	8r	8r	8d
.	8r	8d	8f	8a	[8dJ
=9	=9	=9	=9	=9	=9
1r	8GG	8G	8d	8g	1d]
.	4r	8r	4r	4r	.
.	.	8d	.	.	.
.	8C	8r	8e-	8g	.
.	8C	8c	8e-	8g	.
.	4r	8r	4r	4r	.
.	.	8dL	.	.	.
.	8FF	8fJ	8f	8a	.
=10	=10	=10	=10	=10	=10
1r	8r	8r	8f	8a	4r
.	8FF	8d	4r	4r	.
.	8r	8r	.	.	8r
.	8BB-	8c	8f	8a	8G
.	8BB-	8r	8r	8r	4f
.	8r	8d	8f	8a	.
.	8BB-	8r	8r	8r	8e-L
.	8r	8d	8f	8a	[8dJ
=11	=11	=11	=11	=11	=11
1r	8GG	8G	8d	8g	1d]
.	4r	8r	4r	4r	.
.	.	8d	.	.	.
.	8C	8r	8e-	8g	.
.	8C	8c	8e-	8g	.
.	4r	8r	4r	4r	.
.	.	8dL	.	.	.
.	8FF	8gJ	8f	8a	.
=12	=12	=12	=12	=12	=12
1r	8r	8r	8f	8a	4r
.	8FF	8d	4r	4r	.
.	8r	8r	.	.	8r
.	8BB-	8c	8f	8a	8G
.	8BB-	8r	8r	8r	4f
.	8r	8d	8f	8a	.
.	8BB-	8r	8r	8r	8e-L
.	8r	8d	8f	8a	8dJ
=13	=13	=13	=13	=13	=13
1r	8GG	8G	8d	8g	8r
.	4r	8r	4r	4r	8g
.	.	8d	.	.	8rdd
.	8C	8r	8e-	8g	8d
.	8C	8c	8e-	8g	8r
.	4r	8r	4r	4r	8c
.	.	8dL	.	.	8r
.	8FF	8fJ	8f	8a	[8c
=14	=14	=14	=14	=14	=14
1r	8r	8r	8f	8a	4c]
.	8FF	8d	4r	4r	.
.	8r	8r	.	.	8cL
.	8BB-	8c	8f	8a	8B-J
.	8BB-	8r	8r	8r	8dL
.	8r	8d	8f	8a	8B-J
.	8BB-	8r	8r	8r	4B-
.	8r	8d	8f	8a	.
=15	=15	=15	=15	=15	=15
1r	8GG	8G	8d	8g	1r
.	4r	8r	4r	4r	.
.	.	8d	.	.	.
.	8C	8r	8e-	8g	.
.	8C	8c	8e-	8g	.
.	4r	8r	4r	4r	.
.	.	8dL	.	.	.
.	8FF	8gJ	8f	8a	.
=16	=16	=16	=16	=16	=16
1r	8r	8r	8f	8a	2r
.	8FF	8d	4r	4r	.
.	8r	8r	.	.	.
.	8BB-	8c	8f	8a	.
.	8BB-	8r	8r	8r	8r
.	8r	8d	8f	8a	8dL
.	8BB-	8r	8r	8r	8d
.	8r	8d	8f	8a	[8dJ
=17	=17	=17	=17	=17	=17
1r	8GG	8G	8d	8g	1d]
.	4r	8r	4r	4r	.
.	.	8d	.	.	.
.	8C	8r	8e-	8g	.
.	8C	8c	8e-	8g	.
.	4r	8r	4r	4r	.
.	.	8dL	.	.	.
.	8FF	8fJ	8f	8a	.
=18	=18	=18	=18	=18	=18
1r	8r	8r	8f	8a	4r
.	8FF	8d	4r	4r	.
.	8r	8r	.	.	8r
.	8BB-	8c	8f	8a	8G
.	8BB-	8r	8r	8r	4f
.	8r	8d	8f	8a	.
.	8BB-	8r	8r	8r	8e-L
.	8r	8d	8f	8a	[8dJ
=19	=19	=19	=19	=19	=19
1r	8GG	8G	8d	8g	1d]
.	4r	8r	4r	4r	.
.	.	8d	.	.	.
.	8C	8r	8e-	8g	.
.	8C	8c	8e-	8g	.
.	4r	8r	4r	4r	.
.	.	8dL	.	.	.
.	8FF	8gJ	8f	8a	.
=20	=20	=20	=20	=20	=20
1r	8r	8r	8f	8a	4r
.	8FF	8d	4r	4r	.
.	8r	8r	.	.	8r
.	8BB-	8c	8f	8a	8G
.	8BB-	8r	8r	8r	4f
.	8r	8d	8f	8a	.
.	8BB-	8r	8r	8r	8e-L
.	8r	8d	8f	8a	8dJ
=21	=21	=21	=21	=21	=21
1r	8GG	8G	8d	8g	8r
.	4r	8r	4r	4r	8g
.	.	8d	.	.	8r
.	8C	8r	8e-	8g	8d
.	8C	8c	8e-	8g	8r
.	4r	8r	4r	4r	8c
.	.	8dL	.	.	8r
.	8FF	8fJ	8f	8a	[8c
=22	=22	=22	=22	=22	=22
1r	8r	8r	8f	8a	4c]
.	8FF	8d	4r	4r	.
.	8r	8r	.	.	8cL
.	8BB-	8c	8f	8a	8B-J
.	8BB-	8r	8r	8r	8dL
.	8r	8d	8f	8a	8B-J
.	8BB-	8r	8r	8r	4B-
.	8r	8d	8f	8a	.
=23	=23	=23	=23	=23	=23
1r	1r	4r	4r	4r	1r
.	.	8dL	8fL	8fL	.
.	.	8dJ	8fJ	8fJ	.
.	.	8dL	8fL	8fL	.
.	.	8e-J	8g-XJ	8g-XJ	.
.	.	4f-X	4gn	4gn	.
=24	=24	=24	=24	=24	=24
1r	4FF	1r	4r	1r	1r
.	4FF	.	4r	.	.
.	8r	.	2r	.	.
.	8FF	.	.	.	.
.	4FF	.	.	.	.
=25	=25	=25	=25	=25	=25
1r	8E-L	1d	1g	1b-	4f
.	8E-	.	.	.	.
.	8E-	.	.	.	4f
.	8E-J	.	.	.	.
.	8E-L	.	.	.	4f
.	8E-	.	.	.	.
.	8E-	.	.	.	4f
.	8E-J	.	.	.	.
=26	=26	=26	=26	=26	=26
1r	8DL	2.c	2.d	2.a	4f
.	8D	.	.	.	.
.	8D	.	.	.	4a
.	8DJ	.	.	.	.
.	8DL	.	.	.	4a
.	8D	.	.	.	.
.	8D	[4d	[4g	[4b-	[4b-
.	8DJ	.	.	.	.
=27	=27	=27	=27	=27	=27
1r	8GGL	2.d]	2.g]	2.b-]	4b-]
.	8GG	.	.	.	.
.	8GG	.	.	.	4f
.	8GGJ	.	.	.	.
.	8GGL	.	.	.	4f
.	8GG	.	.	.	.
.	8GG	8r	8r	8r	8e-L
.	8GGJ	[8d	[8g	[8b-	[8e-J
=28	=28	=28	=28	=28	=28
1r	8AAL	8d]	8g]	8b-]	8e-]
.	8AA	4d	4g	4b-	2d
.	8AA	.	.	.	.
.	8AAJ	4d	4g	4b-	.
.	8BB-L	.	.	.	.
.	8BB-	8d	8g	8b-	8r
.	8BB-	[4d	[4g	[4b-	[4d
.	8BB-J	.	.	.	.
=29	=29	=29	=29	=29	=29
1r	8E-L	1d]	1g]	1b-]	4d]
.	8E-	.	.	.	.
.	8E-	.	.	.	4B-
.	8E-J	.	.	.	.
.	8E-L	.	.	.	4d
.	8E-	.	.	.	.
.	8E-	.	.	.	8B-L
.	8E-J	.	.	.	[8dJ
=30	=30	=30	=30	=30	=30
1r	8DL	2.d	2.f#X	2.a	8d]
.	8D	.	.	.	2c
.	8D	.	.	.	.
.	8DJ	.	.	.	.
.	8DL	.	.	.	.
.	8D	.	.	.	8r
.	8D	[4d	[4g	[4b-	[4d
.	8DJ	.	.	.	.
=31	=31	=31	=31	=31	=31
1r	8GGL	2.d]	2.g]	2.b-]	4d]
.	8GG	.	.	.	.
.	8GG	.	.	.	8B-
.	8GGJ	.	.	.	4B-
.	8GGL	.	.	.	.
.	8GG	.	.	.	8c
.	8GG	4r	4r	4r	4B-
.	8GGJ	.	.	.	.
=32	=32	=32	=32	=32	=32
1r	8BB-L	4f	4b-	4dd	1r
.	8BB-	.	.	.	.
.	8BB-	8r	8r	8r	.
.	8BB-J	8f	8b-	8dd	.
.	8AAL	8r	8r	8r	.
.	8AA	4.e-	4.a	4.cc	.
.	8AA	.	.	.	.
.	8AAJ	.	.	.	.
=33	=33	=33	=33	=33	=33
1r	8E-L	1d	1g	1b-	4f
.	8E-	.	.	.	.
.	8E-	.	.	.	4f
.	8E-J	.	.	.	.
.	8E-L	.	.	.	4f
.	8E-	.	.	.	.
.	8E-	.	.	.	4f
.	8E-J	.	.	.	.
=34	=34	=34	=34	=34	=34
1r	8DL	2.c	2.d	2.a	4f
.	8D	.	.	.	.
.	8D	.	.	.	4a
.	8DJ	.	.	.	.
.	8DL	.	.	.	4a
.	8D	.	.	.	.
.	8D	[4d	[4g	[4b-	[4b-
.	8DJ	.	.	.	.
=35	=35	=35	=35	=35	=35
1r	8GGL	2.d]	2.g]	2.b-]	4b-]
.	8GG	.	.	.	.
.	8GG	.	.	.	4f
.	8GGJ	.	.	.	.
.	8GGL	.	.	.	4f
.	8GG	.	.	.	.
.	8GG	8r	8r	8r	8e-L
.	8GGJ	[8d	[8g	[8b-	[8e-J
=36	=36	=36	=36	=36	=36
1r	8AAL	8d]	8g]	8b-]	8e-]
.	8AA	4d	4g	4b-	2d
.	8AA	.	.	.	.
.	8AAJ	4d	4g	4b-	.
.	8BB-L	.	.	.	.
.	8BB-	8d	8g	8b-	8r
.	8BB-	4d	4g	4b-	[4d
.	8BB-J	.	.	.	.
=37	=37	=37	=37	=37	=37
1r	8E-L	1d	1g	1b-	4d]
.	8E-	.	.	.	.
.	8E-	.	.	.	4B-
.	8E-J	.	.	.	.
.	8E-L	.	.	.	4d
.	8E-	.	.	.	.
.	8E-	.	.	.	8B-L
.	8E-J	.	.	.	[8dJ
=38	=38	=38	=38	=38	=38
1r	8DL	2.d	2.f#X	2.a	8d]
.	8D	.	.	.	2c
.	8D	.	.	.	.
.	8DJ	.	.	.	.
.	8DL	.	.	.	.
.	8D	.	.	.	8r
.	8D	[4d	[4g	[4b-	[4d
.	8DJ	.	.	.	.
=39	=39	=39	=39	=39	=39
1r	8GL	2.d]	2.g]	2.b-]	4d]
.	8G	.	.	.	.
.	8G	.	.	.	8B-
.	8GJ	.	.	.	4B-
.	8GL	.	.	.	.
.	8G	.	.	.	8c
.	8G	8r	8r	8r	[4d
.	8GJ	8r	8r	8r	.
=40	=40	=40	=40	=40	=40
1r	8DL	1d	1f	1b-	4d]
.	8D	.	.	.	.
.	8D	.	.	.	8B-L
.	8DJ	.	.	.	8B-J
.	8CL	.	.	.	8B-L
.	8C	.	.	.	8c
.	8C	.	.	.	8B-
.	8CJ	.	.	.	[8dJ
=41	=41	=41	=41	=41	=41
1r	8GG	8G	8d	8g	4.d]
.	4r	8r	4r	4r	.
.	.	8d	.	.	.
.	8C	8r	8e-	8g	8r
.	8C	8c	8e-	8g	2r
.	4r	8r	4r	4r	.
.	.	8dL	.	.	.
.	8FF	8fJ	8f	8a	.
=42	=42	=42	=42	=42	=42
1r	8r	8r	8f	8a	1r
.	8FF	8d	4r	4r	.
.	8r	8r	.	.	.
.	8BB-	8c	8f	8a	.
.	8BB-	8r	8r	8r	.
.	8r	8d	8f	8a	.
.	8BB-	8r	8r	8r	.
.	8r	8d	8f	8a	.
=43	=43	=43	=43	=43	=43
1r	8GG	8G	8d	8g	1r
.	4r	8r	4r	4r	.
.	.	8d	.	.	.
.	8C	8r	8e-	8g	.
.	8C	8c	8e-	8g	.
.	4r	8r	4r	4r	.
.	.	8dL	.	.	.
.	8FF	8gJ	8f	8a	.
=44	=44	=44	=44	=44	=44
1r	8r	8r	8f	8a	1r
.	8FF	8d	4r	4r	.
.	8r	8r	.	.	.
.	8BB-	8c	8f	8a	.
.	8BB-	8r	8r	8r	.
.	8r	8d	8f	8a	.
.	8BB-	8r	8r	8r	.
.	8r	8d	8f	8a	.
=45	=45	=45	=45	=45	=45
1r	8GG	8G	8d	8g	1r
.	4r	8r	4r	4r	.
.	.	8d	.	.	.
.	8C	8r	8e-	8g	.
.	8C	8c	8e-	8g	.
.	4r	8r	4r	4r	.
.	.	8dL	.	.	.
.	8FF	8fJ	8f	8a	.
=46	=46	=46	=46	=46	=46
1r	8r	8r	8f	8a	1r
.	8FF	8d	4r	4r	.
.	8r	8r	.	.	.
.	8BB-	8c	8f	8a	.
.	8BB-	8r	8r	8r	.
.	8r	8d	8f	8a	.
.	8BB-	8r	8r	8r	.
.	8r	8d	8f	8a	.
=47	=47	=47	=47	=47	=47
1r	8GG	8G	8d	8g	1r
.	4r	8r	4r	4r	.
.	.	8d	.	.	.
.	8C	8r	8e-	8g	.
.	8C	8c	8e-	8g	.
.	4r	8r	4r	4r	.
.	.	8dL	.	.	.
.	8FF	8gJ	8f	8a	.
=48	=48	=48	=48	=48	=48
1r	8r	8r	8f	8a	2r
.	8FF	8d	4r	4r	.
.	8r	8r	.	.	.
.	8BB-	8c	8f	8a	.
.	8BB-	8r	8r	8r	8r
.	8r	8d	8f	8a	8dL
.	8BB-	8r	8r	8r	8d
.	8r	8d	8f	8a	[8dJ
=49	=49	=49	=49	=49	=49
1r	8GG	8G	1r	1r	1d]
.	4r	8r	.	.	.
.	.	8d	.	.	.
.	8C	8r	.	.	.
.	8C	8c	.	.	.
.	4r	8r	.	.	.
.	.	8dL	.	.	.
.	8FF	8fJ	.	.	.
=50	=50	=50	=50	=50	=50
1r	8r	8r	1r	1r	4r
.	8FF	8d	.	.	.
.	8r	8r	.	.	8r
.	8BB-	8c	.	.	8G
.	8BB-	8r	.	.	4f
.	8r	8d	.	.	.
.	8BB-	8r	.	.	8e-L
.	8r	8d	.	.	[8dJ
=51	=51	=51	=51	=51	=51
1r	8GG	8G	1r	1r	1d]
.	4r	8r	.	.	.
.	.	8d	.	.	.
.	8C	8r	.	.	.
.	8C	8c	.	.	.
.	4r	8r	.	.	.
.	.	8dL	.	.	.
.	8FF	8gJ	.	.	.
=52	=52	=52	=52	=52	=52
1r	8r	8r	1r	1r	4r
.	8FF	8d	.	.	.
.	8r	8r	.	.	8r
.	8BB-	8c	.	.	8G
.	8BB-	8r	.	.	4f
.	8r	8d	.	.	.
.	8BB-	8r	.	.	8e-L
.	8r	8d	.	.	8dJ
=53	=53	=53	=53	=53	=53
1r	8GG	8G	1r	1r	8r
.	4r	8r	.	.	8g
.	.	8d	.	.	8r
.	8C	8r	.	.	8d
.	8C	8c	.	.	8r
.	4r	8r	.	.	8c
.	.	8dL	.	.	8r
.	8FF	8fJ	.	.	[8c
=54	=54	=54	=54	=54	=54
1r	8r	8r	1r	1r	4c]
.	8FF	8d	.	.	.
.	8r	8r	.	.	8cL
.	8BB-	8c	.	.	8B-J
.	8BB-	8r	.	.	8dL
.	8r	8d	.	.	8B-J
.	8BB-	8r	.	.	4B-
.	8r	8d	.	.	.
=55	=55	=55	=55	=55	=55
1r	8GG	8G	1r	1r	1r
.	4r	8r	.	.	.
.	.	8d	.	.	.
.	8C	8r	.	.	.
.	8C	8c	.	.	.
.	4r	8r	.	.	.
.	.	8dL	.	.	.
.	8FF	8fJ	.	.	.
=56	=56	=56	=56	=56	=56
1r	8r	8r	1r	1r	2r
.	8FF	8d	.	.	.
.	8r	8r	.	.	.
.	8BB-	8c	.	.	.
.	8BB-	8r	.	.	8r
.	8r	8d	.	.	8dL
.	8BB-	8r	.	.	8d
.	8r	8d	.	.	[8dJ
=57	=57	=57	=57	=57	=57
1r	8GG	8G	8d	8g	1d]
.	4r	8r	4r	4r	.
.	.	8d	.	.	.
.	8C	8r	8e-	8g	.
.	8C	8c	8e-	8g	.
.	4r	8r	4r	4r	.
.	.	8dL	.	.	.
.	8FF	8fJ	8f	8a	.
=58	=58	=58	=58	=58	=58
1r	8r	8r	8f	8a	4r
.	8FF	8d	4r	4r	.
.	8r	8r	.	.	8r
.	8BB-	8c	8f	8a	8G
.	8BB-	8r	8r	8r	4f
.	8r	8d	8f	8a	.
.	8BB-	8r	8r	8r	8e-L
.	8r	8d	8f	8a	[8dJ
=59	=59	=59	=59	=59	=59
1r	8GG	8G	8d	8g	1d]
.	4r	8r	4r	4r	.
.	.	8d	.	.	.
.	8C	8r	8e-	8g	.
.	8C	8c	8e-	8g	.
.	4r	8r	4r	4r	.
.	.	8dL	.	.	.
.	8FF	8gJ	8f	8a	.
=60	=60	=60	=60	=60	=60
1r	8r	8r	8f	8a	4r
.	8FF	8d	4r	4r	.
.	8r	8r	.	.	8r
.	8BB-	8c	8f	8a	8G
.	8BB-	8r	8r	8r	4f
.	8r	8d	8f	8a	.
.	8BB-	8r	8r	8r	8e-L
.	8r	8d	8f	8a	8dJ
=61	=61	=61	=61	=61	=61
1r	8GG	8G	8d	8g	8r
.	4r	8r	4r	4r	8g
.	.	8d	.	.	8r
.	8C	8r	8e-	8g	8d
.	8C	8c	8e-	8g	8r
.	4r	8r	4r	4r	8c
.	.	8dL	.	.	8r
.	8FF	8fJ	8f	8a	[8c
=62	=62	=62	=62	=62	=62
1r	8r	8r	8f	8a	4c]
.	8FF	8d	4r	4r	.
.	8r	8r	.	.	8cL
.	8BB-	8c	8f	8a	8B-J
.	8r	8r	8r	8r	8dL
.	8BB-	8d	8f	8a	8B-J
.	8r	8r	8r	8r	4B-
.	8BB-	8d	8f	8a	.
=63	=63	=63	=63	=63	=63
1r	1r	4r	4r	4r	1r
.	.	8dL	8fL	8fL	.
.	.	8dJ	8fJ	8fJ	.
.	.	8dL	8fL	8fL	.
.	.	8e-J	8g-XJ	8g-XJ	.
.	.	4f-X	4gn	4gn	.
=64	=64	=64	=64	=64	=64
1r	4FF	1r	1r	1r	1r
.	4FF	.	.	.	.
.	8r	.	.	.	.
.	8FF	.	.	.	.
.	4FF	.	.	.	.
=65	=65	=65	=65	=65	=65
1r	8E-L	1d	1g	1b-	4f
.	8E-	.	.	.	.
.	8E-	.	.	.	4f
.	8E-J	.	.	.	.
.	8E-L	.	.	.	4f
.	8E-	.	.	.	.
.	8E-	.	.	.	4f
.	8E-J	.	.	.	.
=66	=66	=66	=66	=66	=66
1r	8DL	2.c	2.d	2.a	4f
.	8D	.	.	.	.
.	8D	.	.	.	4a
.	8DJ	.	.	.	.
.	8DL	.	.	.	4a
.	8D	.	.	.	.
.	8D	[4d	[4g	[4b-	[4b-
.	8DJ	.	.	.	.
=67	=67	=67	=67	=67	=67
1r	8GGL	2.d]	2.g]	2.b-]	4b-]
.	8GG	.	.	.	.
.	8GG	.	.	.	4f
.	8GGJ	.	.	.	.
.	8GGL	.	.	.	4f
.	8GG	.	.	.	.
.	8GG	8r	8r	8r	8e-L
.	8GGJ	[8d	[8g	[8b-	[8e-J
=68	=68	=68	=68	=68	=68
1r	8AAL	2d]	2g]	2b-]	8e-]
.	8AA	.	.	.	2d
.	8AA	.	.	.	.
.	8AAJ	.	.	.	.
.	8BB-L	4r	4r	4r	.
.	8BB-	.	.	.	8r
.	8BB-	[4d	[4g	[4b-	[4d
.	8BB-J	.	.	.	.
=69	=69	=69	=69	=69	=69
1r	8E-L	1d]	1g]	4b-]	4d]
.	8E-	.	.	.	.
.	8E-	.	.	4f	4B-
.	8E-J	.	.	.	.
.	8E-L	.	.	4b-	4d
.	8E-	.	.	.	.
.	8E-	.	.	8fL	8B-L
.	8E-J	.	.	[8b-J	[8dJ
=70	=70	=70	=70	=70	=70
1r	8DL	2.d	2.f#X	8b-]	8d]
.	8D	.	.	2a	2c
.	8D	.	.	.	.
.	8DJ	.	.	.	.
.	8DL	.	.	.	.
.	8D	.	.	8r	8r
.	8D	[4d	[4g	[4b-	[4d
.	8DJ	.	.	.	.
=71	=71	=71	=71	=71	=71
1r	8GGL	2.d]	2.g]	4b-]	4d]
.	8GG	.	.	.	.
.	8GG	.	.	8g	8B-
.	8GGJ	.	.	4g	4B-
.	8GGL	.	.	.	.
.	8GG	.	.	8a	8c
.	8GG	4r	4r	4b-	4B-
.	8GGJ	.	.	.	.
=72	=72	=72	=72	=72	=72
1r	8BB-L	4f	4b-	4dd	1r
.	8BB-	.	.	.	.
.	8BB-	8r	8r	8r	.
.	8BB-J	8f	8b-	8dd	.
.	8AAL	8r	8r	8r	.
.	8AA	4.e-	4.a	4.cc	.
.	8AA	.	.	.	.
.	8AAJ	.	.	.	.
=73	=73	=73	=73	=73	=73
1r	8E-L	1d	1g	1b-	4f
.	8E-	.	.	.	.
.	8E-	.	.	.	4f
.	8E-J	.	.	.	.
.	8E-L	.	.	.	4f
.	8E-	.	.	.	.
.	8E-	.	.	.	4f
.	8E-J	.	.	.	.
=74	=74	=74	=74	=74	=74
1r	8DL	2.c	2.d	2.a	4f
.	8D	.	.	.	.
.	8D	.	.	.	4a
.	8DJ	.	.	.	.
.	8DL	.	.	.	4a
.	8D	.	.	.	.
.	8D	[4d	[4g	[4b-	[4b-
.	8DJ	.	.	.	.
=75	=75	=75	=75	=75	=75
1r	8GGL	2.d]	2.g]	2.b-]	4b-]
.	8GG	.	.	.	.
.	8GG	.	.	.	4f
.	8GGJ	.	.	.	.
.	8GGL	.	.	.	4f
.	8GG	.	.	.	.
.	8GG	8r	8r	8r	8e-L
.	8GGJ	[8d	[8g	[8b-	[8e-J
=76	=76	=76	=76	=76	=76
1r	8AAL	2d]	2g]	2b-]	8e-]
.	8AA	.	.	.	2d
.	8AA	.	.	.	.
.	8AAJ	.	.	.	.
.	8BB-L	4r	4r	4r	.
.	8BB-	.	.	.	8r
.	8BB-	[4d	[4g	[4b-	[4d
.	8BB-J	.	.	.	.
=77	=77	=77	=77	=77	=77
1r	8E-L	1d]	1g]	4b-]	4d]
.	8E-	.	.	.	.
.	8E-	.	.	4f	4B-
.	8E-J	.	.	.	.
.	8E-L	.	.	4b-	4d
.	8E-	.	.	.	.
.	8E-	.	.	8fL	8B-L
.	8E-J	.	.	[8b-J	[8dJ
=78	=78	=78	=78	=78	=78
1r	8DL	2.d	2.f#X	8b-]	8d]
.	8D	.	.	2a	2c
.	8D	.	.	.	.
.	8DJ	.	.	.	.
.	8DL	.	.	.	.
.	8D	.	.	8r	8r
.	8D	[4d	[4g	[4b-	[4d
.	8DJ	.	.	.	.
=79	=79	=79	=79	=79	=79
1r	8GL	2.d]	2.g]	4b-]	4d]
.	8G	.	.	.	.
.	8G	.	.	8f	8B-
.	8GJ	.	.	4f	4B-
.	8GL	.	.	.	.
.	8G	.	.	8g	8c
.	8G	4r	4r	[4b-	[4d
.	8GJ	.	.	.	.
=80	=80	=80	=80	=80	=80
1r	2F	1r	1r	4b-]	4d]
.	.	.	.	8fL	8B-L
.	.	.	.	8fJ	8B-J
.	2D	.	.	8fL	8B-L
.	.	.	.	8g	8c
.	.	.	.	8f	8B-
.	.	.	.	8b-J	8dJ
=81	=81	=81	=81	=81	=81
1r	8GG	8G	1r	1r	4.r
.	4r	8r	.	.	.
.	.	8d	.	.	.
.	8C	8r	.	.	8r
.	8C	8c	.	.	2r
.	4r	8r	.	.	.
.	.	8dL	.	.	.
.	8FF	8fJ	.	.	.
=82	=82	=82	=82	=82	=82
1r	8r	8r	1r	1r	1r
.	8FF	8d	.	.	.
.	8r	8r	.	.	.
.	8BB-	8c	.	.	.
.	8BB-	8r	.	.	.
.	8r	8d	.	.	.
.	8BB-	8r	.	.	.
.	8r	8d	.	.	.
=83	=83	=83	=83	=83	=83
1r	8GG	8G	1r	1r	1r
.	4r	8r	.	.	.
.	.	8d	.	.	.
.	8C	8r	.	.	.
.	8C	8c	.	.	.
.	4r	8r	.	.	.
.	.	8dL	.	.	.
.	8FF	8gJ	.	.	.
=84	=84	=84	=84	=84	=84
1r	8r	8r	1r	1r	1r
.	8FF	8d	.	.	.
.	8r	8r	.	.	.
.	8BB-	8c	.	.	.
.	8BB-	8r	.	.	.
.	8r	8d	.	.	.
.	8BB-	8r	.	.	.
.	8r	8d	.	.	.
=85	=85	=85	=85	=85	=85
1r	8GG	8G	[1f	[1a	1r
.	4r	8r	.	.	.
.	.	8d	.	.	.
.	8C	8r	.	.	.
.	8C	8c	.	.	.
.	4r	8r	.	.	.
.	.	8dL	.	.	.
.	8FF	8fJ	.	.	.
=86	=86	=86	=86	=86	=86
1r	8r	8r	1f]	1a]	1r
.	8FF	8d	.	.	.
.	8r	8r	.	.	.
.	8BB-	8c	.	.	.
.	8BB-	8r	.	.	.
.	8r	8d	.	.	.
.	8BB-	8r	.	.	.
.	8r	8d	.	.	.
=87	=87	=87	=87	=87	=87
1r	8GG	8G	[1g-X	[1b-	1r
.	4r	8r	.	.	.
.	.	8d	.	.	.
.	8C	8r	.	.	.
.	8C	8c	.	.	.
.	4r	8r	.	.	.
.	.	8dL	.	.	.
.	8FF	8gJ	.	.	.
=88	=88	=88	=88	=88	=88
1r	8r	8r	1g-]	1b-]	1r
.	8FF	8d	.	.	.
.	8r	8r	.	.	.
.	8BB-	8c	.	.	.
.	8BB-	8r	.	.	.
.	8r	8d	.	.	.
.	8BB-	8r	.	.	.
.	8r	8d	.	.	.
=89	=89	=89	=89	=89	=89
1r	8GG	8G	[1g#X	[1bn	1r
.	4r	8r	.	.	.
.	.	8d	.	.	.
.	8C	8r	.	.	.
.	8C	8c	.	.	.
.	4r	8r	.	.	.
.	.	8dL	.	.	.
.	8FF	8fJ	.	.	.
=90	=90	=90	=90	=90	=90
1r	8r	8r	1g#]	1b]	1r
.	8FF	8d	.	.	.
.	8r	8r	.	.	.
.	8BB-	8c	.	.	.
.	8BB-	8r	.	.	.
.	8r	8d	.	.	.
.	8BB-	8r	.	.	.
.	8r	8d	.	.	.
=91	=91	=91	=91	=91	=91
1r	8GG	8G	1a	1cc	1r
.	4r	8r	.	.	.
.	.	8d	.	.	.
.	8C	8r	.	.	.
.	8C	8c	.	.	.
.	4r	8r	.	.	.
.	.	8dL	.	.	.
.	8C	8gJ	.	.	.
=92	=92	=92	=92	=92	=92
1r	1r	1r	1r	1r	1r
=93	=93	=93	=93	=93	=93
1r	8E-L	1e-	1g	1b-	4f
.	8E-	.	.	.	.
.	8E-	.	.	.	4f
.	8E-J	.	.	.	.
.	8E-L	.	.	.	4f
.	8E-	.	.	.	.
.	8E-	.	.	.	4f
.	8E-J	.	.	.	.
=94	=94	=94	=94	=94	=94
1r	8DL	2.d	2.f	2.a	4f
.	8D	.	.	.	.
.	8D	.	.	.	4a
.	8DJ	.	.	.	.
.	8DL	.	.	.	4a
.	8D	.	.	.	.
.	8D	[4g	[4b-	[4dd	[4b-
.	8DJ	.	.	.	.
=95	=95	=95	=95	=95	=95
1r	8GGL	4g]	4b-]	4dd]	4b-]
.	8GG	.	.	.	.
.	8GG	4d	4g	4b-	4f
.	8GGJ	.	.	.	.
.	8GGL	4d	4g	4b-	4f
.	8GG	.	.	.	.
.	8GG	8dL	8gL	8b-L	8e-L
.	8GGJ	[8dJ	[8gJ	[8b-J	[8e-J
=96	=96	=96	=96	=96	=96
1r	8AAL	8d]	8g]	8b-]	8e-]
.	8AA	2d	2g	2b-	2d
.	8AA	.	.	.	.
.	8AAJ	.	.	.	.
.	8BB-L	.	.	.	.
.	8BB-	8r	8r	8r	8r
.	8BB-	4r	4r	4r	[4d
.	8BB-J	.	.	.	.
=97	=97	=97	=97	=97	=97
1r	8E-L	1e-	1g	1b-	4d]
.	8E-	.	.	.	.
.	8E-	.	.	.	4B-
.	8E-J	.	.	.	.
.	8E-L	.	.	.	4d
.	8E-	.	.	.	.
.	8E-	.	.	.	8B-L
.	8E-J	.	.	.	[8dJ
=98	=98	=98	=98	=98	=98
1r	8DL	1d	1f#X	1a	8d]
.	8D	.	.	.	2c
.	8D	.	.	.	.
.	8DJ	.	.	.	.
.	8DL	.	.	.	.
.	8D	.	.	.	8r
.	8D	.	.	.	[4d
.	8DJ	.	.	.	.
=99	=99	=99	=99	=99	=99
1r	8GGL	1d	1g	1b-	4d]
.	8GG	.	.	.	.
.	8GG	.	.	.	8B-
.	8GGJ	.	.	.	4B-
.	8GGL	.	.	.	.
.	8GG	.	.	.	8c
.	8GG	.	.	.	4B-
.	8GGJ	.	.	.	.
=100	=100	=100	=100	=100	=100
1r	2AA	4f	4b-	4dd	1r
.	.	8r	8r	8r	.
.	.	8f	8b-	8dd	.
.	2BB-	8r	8r	8r	.
.	.	4.e-	4.a	4.cc	.
=101	=101	=101	=101	=101	=101
1r	8E-L	1e-	1g	1b-	4f
.	8E-	.	.	.	.
.	8E-	.	.	.	4f
.	8E-J	.	.	.	.
.	8E-L	.	.	.	4f
.	8E-	.	.	.	.
.	8E-	.	.	.	4f
.	8E-J	.	.	.	.
=102	=102	=102	=102	=102	=102
1r	8DL	2.d	2.f	2.a	4f
.	8D	.	.	.	.
.	8D	.	.	.	4a
.	8DJ	.	.	.	.
.	8DL	.	.	.	4a
.	8D	.	.	.	.
.	8D	[4g	[4b-	[4dd	[4b-
.	8DJ	.	.	.	.
=103	=103	=103	=103	=103	=103
1r	8GGL	4g]	4b-]	4dd]	4b-]
.	8GG	.	.	.	.
.	8GG	4d	4g	4b-	4f
.	8GGJ	.	.	.	.
.	8GGL	4d	4g	4b-	4f
.	8GG	.	.	.	.
.	8GG	8dL	8gL	8b-L	8e-L
.	8GGJ	[8dJ	[8gJ	[8b-J	[8e-J
=104	=104	=104	=104	=104	=104
1r	8AAL	8d]	8g]	8b-]	8e-]
.	8AA	2d	2g	2b-	2d
.	8AA	.	.	.	.
.	8AAJ	.	.	.	.
.	8BB-L	.	.	.	.
.	8BB-	8r	8r	8r	8r
.	8BB-	4r	4r	4r	[4d
.	8BB-J	.	.	.	.
=105	=105	=105	=105	=105	=105
1r	8E-L	1e-	1g	1b-	4d]
.	8E-	.	.	.	.
.	8E-	.	.	.	4B-
.	8E-J	.	.	.	.
.	8E-L	.	.	.	4d
.	8E-	.	.	.	.
.	8E-	.	.	.	8B-L
.	8E-J	.	.	.	[8dJ
=106	=106	=106	=106	=106	=106
1r	8DL	1d	1f#X	1a	8d]
.	8D	.	.	.	2c
.	8D	.	.	.	.
.	8DJ	.	.	.	.
.	8DL	.	.	.	.
.	8D	.	.	.	8r
.	8D	.	.	.	[4d
.	8DJ	.	.	.	.
=107	=107	=107	=107	=107	=107
1r	8GGL	1d	1g	1b-	4d]
.	8GG	.	.	.	.
.	8GG	.	.	.	8B-
.	8GGJ	.	.	.	4B-
.	8GGL	.	.	.	.
.	8GG	.	.	.	8B-
.	8GG	.	.	.	[4B-
.	8GGJ	.	.	.	.
=108	=108	=108	=108	=108	=108
1r	8AAL	2f	2b-	2dd	4B-]
.	8AA	.	.	.	.
.	8AA	.	.	.	4r
.	8AAJ	.	.	.	.
.	8BB-L	2e-	2a	2cc	2r
.	8BB-	.	.	.	.
.	8BB-	.	.	.	.
.	8BB-J	.	.	.	.
=109	=109	=109	=109	=109	=109
1r	4E-	4d	4g	4b-	4f
.	4E-	4d	4g	4b-	4f
.	4E-	4d	4g	4b-	4f
.	4E-	4d	4g	4b-	4f
=110	=110	=110	=110	=110	=110
1r	4D	4d	4g	4b-	4f
.	4D	4f	4a	4cc	4a
.	4D	4f	4a	4cc	4a
.	4D	[4g	[4b-	[4dd	[4b-
=111	=111	=111	=111	=111	=111
1r	4GG	4g]	4b-]	4dd]	4b-]
.	4GG	4d	4g	4b-	4f
.	4GG	4d	4g	4b-	4f
.	8GGL	8dL	8gL	8b-L	8e-L
.	8GGJ	[8dJ	[8gJ	[8b-J	[8e-J
=112	=112	=112	=112	=112	=112
1r	8AAL	8d]	8g]	8b-]	8e-]
.	8AA	2.d	2.g	2.b-	2.d
.	8AA	.	.	.	.
.	8AAJ	.	.	.	.
.	8BB-L	.	.	.	.
.	8BB-	.	.	.	.
.	8BB-	.	.	.	.
.	8BB-J	8r	8r	8r	8r
=113	=113	=113	=113	=113	=113
1r	4E-	1e-	1g	1b-	1r
.	4E-	.	.	.	.
.	4E-	.	.	.	.
.	4E-	.	.	.	.
=114	=114	=114	=114	=114	=114
1r	4D	1d	1f#X	1a	1r
.	4D	.	.	.	.
.	4D	.	.	.	.
.	4D	.	.	.	.
=115	=115	=115	=115	=115	=115
1r	4GG	1d	1g	1b-	1r
.	4GG	.	.	.	.
.	4GG	.	.	.	.
.	4GG	.	.	.	.
=116	=116	=116	=116	=116	=116
1r	4AA	1f	1b-	2dd	1r
.	4AA	.	.	.	.
.	4BB-	.	.	2cc	.
.	4BB-	.	.	.	.
=117	=117	=117	=117	=117	=117
1r	1E-	4d	4g	4b-	4f
.	.	4d	4g	4b-	4f
.	.	4d	4g	4b-	4f
.	.	4d	4g	4b-	4f
=118	=118	=118	=118	=118	=118
1r	1D	4d	4g	4b-	4f
.	.	4f	4a	4cc	4a
.	.	4f	4a	4cc	4a
.	.	[4g	[4b-	[4dd	[4b-
=119	=119	=119	=119	=119	=119
1r	1GG	4g]	4b-]	4dd]	4b-]
.	.	4d	4g	4b-	4f
.	.	4d	4g	4b-	4f
.	.	8dL	8gL	8b-L	8e-L
.	.	[8dJ	[8gJ	[8b-J	[8e-J
=120	=120	=120	=120	=120	=120
1r	2AA	8d]	8g]	8b-]	8e-]
.	.	2.d	2.g	2b-	2.d
.	2BB-	.	.	.	.
.	.	.	.	8r	.
.	.	.	.	4f	.
.	.	8r	8r	.	8r
=121	=121	=121	=121	=121	=121
1r	1E-	1d	1g	1b-	1r
=122	=122	=122	=122	=122	=122
1r	1D	2.c	2.f#X	2.a	2r
.	.	.	.	.	4r
.	.	[4d	[4g	[4b-	8cL
.	.	.	.	.	[8dJ
=123	=123	=123	=123	=123	=123
1r	1GG	1d]	1g]	1b-]	4d]
.	.	.	.	.	8B-
.	.	.	.	.	4.B-
.	.	.	.	.	[4d
=124	=124	=124	=124	=124	=124
1r	2AA	1r	1r	1r	4d]
.	.	.	.	.	8B-
.	.	.	.	.	4B-
.	2BB-	.	.	.	.
.	.	.	.	.	8c
.	.	.	.	.	[4B-
=125	=125	=125	=125	=125	=125
1r	8GG	8G	8d	8g	4B-_
.	4r	8r	4r	4r	.
.	.	8d	.	.	2B-]
.	8C	8r	8e-	8g	.
.	8C	8c	8e-	8g	.
.	8r	8r	8r	8r	.
.	8r	8dL	8r	8r	4r
.	8FF	8fJ	8f	8a	.
=126	=126	=126	=126	=126	=126
1r	8r	8r	8f	8a	4r
.	8FF	8d	4r	4r	.
.	8r	8r	.	.	4r
.	8BB-	8c	8f	8a	.
.	8BB-	8r	8r	8r	8r
.	8r	8d	8f	8a	8r
.	8BB-	8r	8r	8r	4r
.	8r	8d	8f	8a	.
=127	=127	=127	=127	=127	=127
1r	8GG	8G	8d	2r	4r
.	4r	8r	4r	.	.
.	.	8d	.	.	4r
.	8C	8r	8e-	.	.
.	8C	8c	8e-	4r	2r
.	8r	8r	8r	.	.
.	8r	8dL	8r	4r	.
.	8FF	8gJ	8f	.	.
=128	=128	=128	=128	=128	=128
1r	8r	8r	8f	2r	1r
.	8FF	8d	4r	.	.
.	8r	8r	.	.	.
.	8BB-	8c	8f	.	.
.	8BB-	8r	8r	4r	.
.	8r	8d	8f	.	.
.	8BB-	8r	8r	4r	.
.	8r	8d	8f	.	.
=129	=129	=129	=129	=129	=129
1r	8GG	8G	2r	2r	1r
.	4r	8r	.	.	.
.	.	8d	.	.	.
.	8C	8r	.	.	.
.	8C	8c	4r	4r	.
.	8r	8r	.	.	.
.	8r	8dL	4r	4r	.
.	8FF	8fJ	.	.	.
=130	=130	=130	=130	=130	=130
1r	8r	8r	2r	2r	1r
.	8FF	8d	.	.	.
.	8r	8r	.	.	.
.	8BB-	8c	.	.	.
.	8BB-	8r	4r	4r	.
.	8r	8d	.	.	.
.	8BB-	8r	4r	4r	.
.	8r	8d	.	.	.
=131	=131	=131	=131	=131	=131
1r	8GG	8G	2r	2r	1r
.	4r	8r	.	.	.
.	.	8d	.	.	.
.	8C	8r	.	.	.
.	8C	8c	4r	4r	.
.	8r	8r	.	.	.
.	8r	8dL	4r	4r	.
.	8FF	8gJ	.	.	.
=132	=132	=132	=132	=132	=132
1r	8r	8r	4r	4r	1r
.	8FF	8d	.	.	.
.	8r	8r	2r	2r	.
.	8r	8c	.	.	.
.	4r	8r	.	.	.
.	.	8d	.	.	.
.	4r	8r	4r	4r	.
.	.	8d	.	.	.
=133	=133	=133	=133	=133	=133
1r	4r	1r	1r	1r	1r
.	4r	.	.	.	.
.	2r	.	.	.	.
=134	=134	=134	=134	=134	=134
1r	1r	1r	1r	1r	1r
=135	=135	=135	=135	=135	=135
1r	1r	1r	1r	1r	1r
=136	=136	=136	=136	=136	=136
1r	1r	1r	1r	1r	1r
=137	=137	=137	=137	=137	=137
1r	1r	1r	1r	1r	1r
=138	=138	=138	=138	=138	=138
1r	1r	1r	1r	1r	1r
=139	=139	=139	=139	=139	=139
1r	1r	1r	1r	1r	1r
==	==	==	==	==	==
*-	*-	*-	*-	*-	*-
